X:009 
T:Ballinalarkey Maids (reel), The 
S:Jack Wade
F:file ID: cre.4/009ball_m
B:CRE4.152 (Gearrchaili Bhaile na Leargadh)
Q:180
L:1/8
M:4/4
R:reel
K:G
A|BGGB cBAG|GFDE FEFD|DGGA BABc|gdcA BGAF|
G2 BG cBAF|DGGB AGFD|dfe^c d=cAF|DGGF G3:|
f/g/|addc gdcA|dgfa g2 ga|bgaf gfdc|ABcA G2 fg|
addc gdcA|dggf gfga|bgaf gfdc|ABcA G3:|

%%%

